X: 23145
T: Le 24 Juin
R: reel
M: 4/4
K: Gmajor
G2A2|:B2dB A2BA|GABG E2DB,|G,B,DG B2cB|ABcA F2AB|
c2ec B2dB|ABcA (3FGF E2|DEFG ABcd|ed^ce d2GA|
B2dB A2BA|GABG E2DB,|G,B,DG B2cB|ABcA F2AB|
c2ec B2dB|ABcA (3FGF E2|fgfe dcBA|1 GGBd g4:|2 GGBd g2 A2||
K: Gmin
|:DGGA B2Bd|d^cde dcBA|DGGA B2Bd|d^cde d2d2|
dccB c2c2|cBBA B2B2|BAGA BAGA|dDcD BDAD|
G2GA B2Bd|d^cde dcBA|DGGA B2Bd|d^cde d2d2|
dccB c2c2|cBBA B2B2|BAGA dcBA|1 GGBd g2 F2:|2 GGBd g4||

